X:1
L:1/8
M:6/8
K:G
 D | GFG BcB | AFA c2 e | dBG GcB | AGF G2 D | GFG BcB | AFA c2 e | dBG c2 B | AGF G2 || d | 
 g2 d e2 d | g2 d e2 d | def gfe | dcB A2 g | edc Bcd | dcB ABc | dBG c2 B | AGF G2 ||
